Yaru++/actions/16/align-horizontal-left-out.svg

<svg viewBox="0 0 24 24" xmlns="http://www.w3.org/2000/svg">
  <path d="m10 4v16h1v-16zm3 0v6h1 6v-1-5h-1zm1 1h5v4h-5zm-10 9v6h1 3v-1-5h-1zm10 0v5 1h1 4 1v-1-4-1zm1 1h4v4h-4z" fill="#808080"/>
</svg>

<svg xmlns="http://www.w3.org/2000/svg" viewBox="0 0 24 24">
 <defs>
  <style id="current-color-scheme" type="text/css">
   .ColorScheme-Text { color:#808080; }
  </style>
 </defs>
 <path fill="#808080" class="ColorScheme-Text" d="M 10 4 L 10 20 L 11 20 L 11 4 L 10 4 z M 13 4 L 13 10 L 14 10 L 20 10 L 20 9 L 20 4 L 19 4 L 13 4 z M 14 5 L 19 5 L 19 9 L 14 9 L 14 5 z M 4 14 L 4 20 L 5 20 L 8 20 L 8 19 L 8 14 L 7 14 L 4 14 z M 14 14 L 14 19 L 14 20 L 15 20 L 19 20 L 20 20 L 20 19 L 20 15 L 20 14 L 14 14 z M 15 15 L 19 15 L 19 19 L 15 19 L 15 15 z"/>
</svg>
